X: 10984
Q: "Moderate."
M: 2/4
L: 1/8
K: C
|:\
c2G>F | EcGE |\
e<cG>B | c4 ::\
e>dce | d>cBd |\
c>BAc |
e>dce | d>cBd |\
c>BAc | BGG z/E/ |\
e<cg>B | {B}c4 :|


